app/dist/common/images/an2-therapeutics.svg

<svg height="18" viewBox="0 0 18 18" width="18" xmlns="http://www.w3.org/2000/svg"><path d="m0 0h18v18h-18z" fill="#f0f3fa"/><path d="m2 12 2.1-6h.68l2.02 6h-1l-.33-1h-2.14l-.33 1zm1.67-2h1.48l-.73-2.24zm3.33-4v6h1v-4.17l3.28 4.17h.72v-6h-1v4.12l-3.29-4.12z" fill="#313032"/><path d="m14.27 6c-1.4.06-1.76 1.25-1.76 1.83h.62c.12-.92.64-1.21 1.14-1.22.5 0 1.09.36 1.1 1.03.03.53-.22.91-.36 1.12l-2.62 3.24h3.61v-.61l-2.33-.01 1.76-2.15c.6-.71.6-1.38.55-1.68-.2-1.32-1.23-1.58-1.71-1.55z" fill="#e43d30"/></svg>

<!-- by TradingView --><svg width="18" height="18" viewBox="0 0 18 18" xmlns="http://www.w3.org/2000/svg"><path fill="#F0F3FA" d="M0 0h18v18H0z"/><path d="m2 12 2.1-6h.68l2.02 6h-1l-.33-1H3.33L3 12H2Zm1.67-2h1.48l-.73-2.24L3.67 10ZM7 6v6h1V7.83L11.28 12H12V6h-1v4.12L7.71 6H7Z" fill="#313032"/><path d="M14.27 6c-1.4.06-1.76 1.25-1.76 1.83h.62c.12-.92.64-1.21 1.14-1.22.5 0 1.09.36 1.1 1.03.03.53-.22.91-.36 1.12L12.39 12H16v-.61l-2.33-.01 1.76-2.15c.6-.71.6-1.38.55-1.68-.2-1.32-1.23-1.58-1.71-1.55Z" fill="#E43D30"/></svg>
